X:1
T:J. P. Scholfield
T:J. P. S.
T:When I Felt His Power
%%score 1 { ( 2 5 ) | ( 3 4 ) }
L:1/8
Q:1/4=112
M:4/4
K:Bb
V:1 treble 
V:2 treble nm="Piano" snm="Pno."
V:5 treble 
V:3 bass 
V:4 bass 
V:1
"^Moderato"{/x} B2 F2 G2 F2 | B2 F2 (G2 F2) | B2 F2 c2 F2 | d4- d4 | c2 B2 A2 B2 | c2 B2 (A2 G2) | %6
w: All my bur\- dens|rolled a\- way *|When I felt His|pow'r; *|I shall ev\- er|bless the day *|
w: Floods of joy swept|thro' my soul *|When I felt His|pow'r; *|I was par\- doned|and made whole *|
w: Light came beam\- ing|bright and clear *|When I felt His|pow'r; *|Love came in and|ban\- ished fear *|
 c2 G2 d2 G2 | e4- e4 | %8
w: When I felt His|pow'r. *|
w: When I felt His|pow'r. *|
w: When I felt His|pow'r. *|
[Q:1/4=120]"^Allegretto"[Q:1/4=120]"^Allegretto"[Q:1/4=120]"^Allegretto" z8 | z8 | z8 | z8 | z8 | %13
w: |||||
w: |||||
w: |||||
 z8 |[Q:1/4=120]"^Allegretto" z8 | z8 |] %16
w: |||
w: |||
w: |||
V:2
 [DFB]2 [DFB]2 [B,EB]2 [B,DB]2 | [DFB]2 [DFB]2 [B,EB]2 [B,DB]2 | [FB]2 [DB]2 [EA]2 [EA]2 | %3
w: |||
 [D-FB]4 [DFB]4 | [EGc]2 [=EGc]2 [Fc]2 [EGc]2 | [EGc]2 [=EGc]2 [Fc]2 [Ec]2 | %6
w: |||
 [Gc]2 [=Ec]2 [FG]2 [FG]2 | [E-Gc-]4 [EGc]4 |"^Chorus" d2 d2 c2"^Faster" A2 | B6 z2 | %10
w: ||When I felt His|pow'r,|
 B2 B2 A2 ^F2 | G4- G4 | F2 F2 G2 A2 | B2 d2"^rit." f2!<(! !fermata!e2!<)! | %14
w: When I felt His|pow'r, *|Oh the joy that|thrilled my soul *|
 !>!d2 !>!B2 !>!c2 !>!A2 | !>!B4- B4 |] %16
w: When I felt His|pow'r! *|
V:3
 B,4 G,2 F,2 | B,2 F,2 G,2 F,2 | B,2 F,2 C2 F,2 | B,2 F,2 B,2 F,2 | C2 G,2 A,2 G,2 | %5
 C2 G,2 A,2 G,2 | C2 G,2 D2 G,2 | G,4- G,4 | B,2 B,2 A,2 C2 | B,2 G,2 F,2 z2 | G,2 G,2 ^F,2 A,2 | %11
 G,2 D,2 G,4 | A,2 A,2 B,2 C2 | B,2 B,2 (B,2 B,2) | B,2 D2 A,2 C2 | B,4- B,4 |] %16
V:4
 B,,4- B,,4 | B,,4- B,,4 | D,2 B,,2 F,2 C,2 | B,,4- B,,4 | C,4- C,4 | C,4- C,4 | %6
 E,2 C,2 =B,,2 B,,2 | C,4- C,4 | B,,2 B,,2 F,2 F,2 | B,,6 z2 | G,,2 G,,2 D,2 D,2 | G,,4- G,,4 | %12
 F,2 F,2 F,2 F,2 | D,2 B,,2 (D,2 !fermata!E,2) | F,2 F,2 [F,,F,]2 [F,,F,]2 | B,,4- B,,4 |] %16
V:5
 x8 | x8 | x8 | x8 | x8 | x8 | x8 | x8 | F2 F2 E2 E2 | D2 E2 D2 z2 | D2 D2 D2 C2 | B,4- B,4 | %12
 E2 E2 E2 E2 | F2 F2 (_A2 G2) | F2 F2 E2 E2 | D4- D4 |] %16

